; generated by Slic3r 1.1.7 on 2014-12-05 at 03:52:27

; perimeters extrusion width = 0.40mm
; infill extrusion width = 0.87mm
; solid infill extrusion width = 0.68mm
; top infill extrusion width = 0.68mm

G21 ; set units to millimeters
M104 S204 ; set temperature
G21; metric values
G90; absolute positioning
M82; set extruder to absolute mode
G28 ; home all axes
G29; autolevel
G1 Z5 F5000 ; lift nozzle
M106;fan on
M109 S204 ; wait for temperature to be reached
G90 ; use absolute coordinates
G92 E0
M82 ; use absolute distances for extrusion
G1 F1800.000 E-1.00000
G92 E0
G1 Z0.200 F7800.000
G1 X31.742 Y33.938 F7800.000
G1 E1.00000 F1800.000
G1 X33.501 Y32.419 E1.08095 F1260.000
G1 X35.668 Y31.582 E1.16190
G1 X37.000 Y31.450 E1.20851
G1 X183.000 Y31.450 E6.29433
G1 X185.290 Y31.847 E6.37528
G1 X187.312 Y32.992 E6.45623 F1260.000
G1 X188.831 Y34.751 E6.53717
G1 X189.668 Y36.918 E6.61812
G1 X189.800 Y38.250 E6.66474
G1 X189.800 Y131.750 E9.92175
G1 X189.403 Y134.040 E10.00270
G1 X188.258 Y136.062 E10.08365
G1 X186.499 Y137.581 E10.16459
G1 X184.332 Y138.418 E10.24554
G1 X183.000 Y138.550 E10.29216
G1 X37.000 Y138.550 E15.37798
G1 X34.710 Y138.153 E15.45892
G1 X32.688 Y137.008 E15.53987
G1 X31.169 Y135.249 E15.62082
G1 X30.332 Y133.082 E15.70177
G1 X30.200 Y131.750 E15.74839
G1 X30.200 Y38.250 E19.00540
G1 X30.597 Y35.960 E19.08635
G1 X31.712 Y33.990 E19.16520
G1 X32.102 Y34.150 F7800.000
G1 X32.138 Y34.088 E19.16770 F1260.000
G1 X33.883 Y32.661 E19.24621
G1 X37.000 Y31.850 E19.35842
G1 X183.000 Y31.850 E24.44423
G1 X185.219 Y32.247 E24.52275
G1 X187.162 Y33.388 E24.60126 F1260.000
G1 X188.589 Y35.133 E24.67977
G1 X189.400 Y38.250 E24.79197
G1 X189.400 Y131.750 E28.04899
G1 X189.003 Y133.969 E28.12750
G1 X187.862 Y135.912 E28.20601
G1 X186.117 Y137.339 E28.28452
G1 X183.000 Y138.150 E28.39673
G1 X37.000 Y138.150 E33.48254
G1 X34.781 Y137.753 E33.56106
G1 X32.838 Y136.612 E33.63957
G1 X31.411 Y134.867 E33.71808
G1 X30.600 Y131.750 E33.83028
G1 X30.600 Y38.250 E37.08730
G1 X30.997 Y36.031 E37.16581
G1 X32.072 Y34.201 E37.23973
G1 F1800.000 E36.23973
G92 E0
G1 X112.000 Y37.836 F7800.000
G1 E1.00000 F1800.000
G1 X112.586 Y37.250 E1.02886 F1260.000
G1 X183.414 Y37.250 E3.49612
G1 X184.000 Y37.836 E3.52498
G1 X184.000 Y132.164 E6.81085 F1260.000
G1 X183.414 Y132.750 E6.83971
G1 X112.586 Y132.750 E9.30697
G1 X112.000 Y132.164 E9.33583
G1 X112.000 Y37.896 E12.61961
G1 X112.400 Y38.001 F7800.000
G1 X112.751 Y37.650 E12.63692 F1260.000
G1 X183.249 Y37.650 E15.09264
G1 X183.600 Y38.001 E15.10996 F1260.000
G1 X183.600 Y131.999 E18.38429
G1 X183.249 Y132.350 E18.40160
G1 X112.751 Y132.350 E20.85732
G1 X112.400 Y131.999 E20.87464
G1 X112.400 Y38.061 E24.14687
G1 X112.800 Y38.167 F7800.000
G1 X112.917 Y38.050 E24.15265 F1260.000
G1 X183.083 Y38.050 E26.59682
G1 X183.200 Y38.167 E26.60259
G1 X183.200 Y131.833 E29.86538
G1 X183.083 Y131.950 E29.87115
G1 X112.917 Y131.950 E32.31533
G1 X112.800 Y131.833 E32.32110
G1 X112.800 Y38.227 E35.58179
G1 F1800.000 E34.58179
G92 E0
G1 X108.000 Y38.167 F7800.000
G1 E1.00000 F1800.000
G1 X108.000 Y132.164 E4.27433 F1260.000
G1 X107.414 Y132.750 E4.30319
G1 X36.586 Y132.750 E6.77045
G1 X36.000 Y132.164 E6.79931
G1 X36.000 Y37.836 E10.08518
G1 X36.586 Y37.250 E10.11404
G1 X107.414 Y37.250 E12.58130
G1 X108.000 Y37.836 E12.61016
G1 X108.000 Y38.107 E12.61961 F1260.000
G1 X107.600 Y38.167 F7800.000
G1 X107.600 Y131.999 E15.88817 F1260.000
G1 X107.249 Y132.350 E15.90548
G1 X36.751 Y132.350 E18.36120
G1 X36.400 Y131.999 E18.37852
G1 X36.400 Y38.001 E21.65284
G1 X36.751 Y37.650 E21.67016
G1 X107.249 Y37.650 E24.12588
G1 X107.600 Y38.001 E24.14319 F1260.000
G1 X107.600 Y38.107 E24.14687
G1 F1800.000 E23.14687
G92 E0
G1 X36.800 Y38.167 F7800.000
G1 E1.00000 F1800.000
G1 X36.917 Y38.050 E1.00577 F1260.000
G1 X107.083 Y38.050 E3.44995
G1 X107.200 Y38.167 E3.45572
G1 X107.200 Y131.833 E6.71851
G1 X107.083 Y131.950 E6.72428
G1 X36.917 Y131.950 E9.16845
G1 X36.800 Y131.833 E9.17423
G1 X36.800 Y38.227 E12.43492
G1 F1800.000 E11.43492
G92 E0
G1 X106.800 Y131.550 F7800.000
G1 E1.00000 F1800.000
G1 X37.200 Y131.550 E3.42447 F441.000
G1 X37.200 Y38.450 E6.66755
G1 X106.800 Y38.450 E9.09202
G1 X106.800 Y131.490 E12.33301
G1 X85.500 Y126.350 F7800.000
G1 X85.500 Y123.928 E12.41739 F630.000
G1 X85.720 Y123.855 E12.42545
G1 X85.955 Y124.173 E12.43922
G1 X86.726 Y125.024 E12.47922
G1 X87.577 Y125.795 E12.51922
G1 X88.499 Y126.479 E12.55922
G1 X89.484 Y127.069 E12.59922
G1 X90.522 Y127.560 E12.63922
G1 X91.603 Y127.947 E12.67922
G1 X92.717 Y128.226 E12.71922
G1 X93.853 Y128.394 E12.75921
G1 X95.000 Y128.451 E12.79921
G1 X96.147 Y128.394 E12.83921
G1 X97.283 Y128.226 E12.87921
G1 X98.397 Y127.947 E12.91921
G1 X99.478 Y127.560 E12.95921
G1 X100.516 Y127.069 E12.99921
G1 X101.501 Y126.479 E13.03920
G1 X102.423 Y125.795 E13.07921
G1 X103.274 Y125.024 E13.11920
G1 X104.045 Y124.173 E13.15920
G1 X104.729 Y123.251 E13.19920
G1 X105.319 Y122.266 E13.23920
G1 X105.810 Y121.228 E13.27920
G1 X106.135 Y120.320 E13.31277
G1 X106.400 Y120.366 E13.32215
G1 X106.400 Y131.150 E13.69779
G1 X37.600 Y131.150 E16.09439
G1 X37.600 Y120.366 E16.47003
G1 X37.865 Y120.320 E16.47941
G1 X38.190 Y121.228 E16.51298
G1 X38.681 Y122.266 E16.55298
G1 X39.271 Y123.251 E16.59298
G1 X39.985 Y124.206 E16.63454
G1 X40.726 Y125.024 E16.67297
G1 X41.577 Y125.795 E16.71297
G1 X42.499 Y126.479 E16.75296
G1 X43.484 Y127.069 E16.79296
G1 X44.522 Y127.560 E16.83296
G1 X45.603 Y127.947 E16.87296
G1 X46.717 Y128.226 E16.91296
G1 X47.853 Y128.394 E16.95296
G1 X49.000 Y128.451 E16.99296
G1 X50.147 Y128.394 E17.03296
G1 X51.283 Y128.226 E17.07295
G1 X52.353 Y127.958 E17.11139
G1 X53.478 Y127.560 E17.15295
G1 X54.516 Y127.069 E17.19295
G1 X55.501 Y126.479 E17.23294
G1 X56.423 Y125.795 E17.27294
G1 X57.274 Y125.024 E17.31294
G1 X58.045 Y124.173 E17.35294
G1 X58.280 Y123.855 E17.36672
G1 X58.500 Y123.928 E17.37477
G1 X58.500 Y125.350 E17.42432
G1 X65.500 Y125.350 E17.66816
G1 X65.500 Y121.650 E17.79704
G1 X59.610 Y121.650 E18.00221
G1 X59.810 Y121.228 E18.01848
G1 X60.197 Y120.147 E18.05848
G1 X60.476 Y119.033 E18.09848
G1 X60.644 Y117.897 E18.13847
G1 X60.701 Y116.750 E18.17848
G1 X60.644 Y115.603 E18.21847
G1 X60.476 Y114.467 E18.25848
G1 X60.197 Y113.353 E18.29848
G1 X59.810 Y112.272 E18.33847
G1 X59.319 Y111.234 E18.37847
G1 X58.729 Y110.249 E18.41847
G1 X58.045 Y109.327 E18.45847
G1 X57.274 Y108.476 E18.49846
G1 X56.423 Y107.705 E18.53847
G1 X55.501 Y107.021 E18.57846
G1 X54.516 Y106.431 E18.61846
G1 X53.478 Y105.940 E18.65846
G1 X52.397 Y105.553 E18.69846
G1 X51.283 Y105.274 E18.73846
G1 X50.147 Y105.106 E18.77846
G1 X49.000 Y105.049 E18.81846
G1 X47.853 Y105.106 E18.85846
G1 X46.717 Y105.274 E18.89845
G1 X45.603 Y105.553 E18.93845
G1 X44.522 Y105.940 E18.97845
G1 X43.484 Y106.431 E19.01845
G1 X42.499 Y107.021 E19.05845
G1 X41.577 Y107.705 E19.09845
G1 X40.726 Y108.476 E19.13845
G1 X39.955 Y109.327 E19.17844
G1 X39.271 Y110.249 E19.21844
G1 X38.681 Y111.234 E19.25844
G1 X38.190 Y112.272 E19.29844
G1 X37.865 Y113.180 E19.33201
G1 X37.600 Y113.134 E19.34139
G1 X37.600 Y56.866 E21.30142
G1 X37.865 Y56.820 E21.31080
G1 X38.190 Y57.728 E21.34437
G1 X38.681 Y58.766 E21.38436
G1 X39.271 Y59.751 E21.42436
G1 X39.955 Y60.673 E21.46436
G1 X40.726 Y61.524 E21.50436
G1 X41.577 Y62.295 E21.54436
G1 X42.499 Y62.979 E21.58436
G1 X43.484 Y63.569 E21.62436
G1 X44.522 Y64.060 E21.66436
G1 X45.603 Y64.447 E21.70436
G1 X46.717 Y64.726 E21.74435
G1 X48.554 Y64.998 E21.80903
G1 X48.554 Y64.929 E21.81145
G1 X49.000 Y64.951 E21.82701
G1 X50.147 Y64.894 E21.86701
G1 X51.283 Y64.726 E21.90701
G1 X52.397 Y64.447 E21.94701
G1 X53.478 Y64.060 E21.98701
G1 X54.516 Y63.569 E22.02701
G1 X55.501 Y62.979 E22.06701
G1 X56.423 Y62.295 E22.10701
G1 X57.274 Y61.524 E22.14701
G1 X58.045 Y60.673 E22.18700
G1 X58.729 Y59.751 E22.22700
G1 X59.319 Y58.766 E22.26700
G1 X59.810 Y57.728 E22.30700
G1 X60.197 Y56.647 E22.34700
G1 X60.476 Y55.533 E22.38699
G1 X60.644 Y54.397 E22.42699
G1 X60.701 Y53.250 E22.46700
G1 X60.644 Y52.103 E22.50699
G1 X60.476 Y50.967 E22.54699
G1 X60.197 Y49.853 E22.58699
G1 X59.810 Y48.772 E22.62699
G1 X59.610 Y48.350 E22.64326
G1 X65.500 Y48.350 E22.84843
G1 X65.500 Y44.650 E22.97731
G1 X58.500 Y44.650 E23.22115
G1 X58.500 Y46.072 E23.27070
G1 X58.280 Y46.145 E23.27875
G1 X58.045 Y45.827 E23.29253
G1 X57.274 Y44.976 E23.33253
G1 X56.423 Y44.205 E23.37253
G1 X55.462 Y43.498 E23.41409
G1 X54.516 Y42.931 E23.45252
G1 X53.478 Y42.440 E23.49252
G1 X52.397 Y42.053 E23.53251
G1 X51.283 Y41.774 E23.57251
G1 X50.147 Y41.606 E23.61251
G1 X49.000 Y41.549 E23.65251
G1 X47.853 Y41.606 E23.69251
G1 X46.717 Y41.774 E23.73251
G1 X45.603 Y42.053 E23.77251
G1 X44.522 Y42.440 E23.81251
G1 X43.484 Y42.931 E23.85251
G1 X42.499 Y43.521 E23.89251
G1 X41.577 Y44.205 E23.93250
G1 X40.726 Y44.976 E23.97250
G1 X39.955 Y45.827 E24.01250
G1 X39.271 Y46.749 E24.05250
G1 X38.681 Y47.734 E24.09250
G1 X38.190 Y48.772 E24.13250
G1 X37.865 Y49.680 E24.16606
G1 X37.600 Y49.634 E24.17544
G1 X37.600 Y38.850 E24.55108
G1 X106.400 Y38.850 E26.94769
G1 X106.400 Y49.634 E27.32333
G1 X106.135 Y49.680 E27.33271
G1 X105.810 Y48.772 E27.36628
G1 X105.319 Y47.734 E27.40628
G1 X104.729 Y46.749 E27.44628
G1 X104.045 Y45.827 E27.48627
G1 X103.274 Y44.976 E27.52628
G1 X102.423 Y44.205 E27.56627
G1 X101.501 Y43.521 E27.60627
G1 X100.516 Y42.931 E27.64627
G1 X99.478 Y42.440 E27.68627
G1 X98.397 Y42.053 E27.72626
G1 X97.283 Y41.774 E27.76626
G1 X96.147 Y41.606 E27.80627
G1 X95.000 Y41.549 E27.84626
G1 X93.853 Y41.606 E27.88626
G1 X92.717 Y41.774 E27.92626
G1 X91.603 Y42.053 E27.96626
G1 X90.522 Y42.440 E28.00626
G1 X89.484 Y42.931 E28.04626
G1 X88.499 Y43.521 E28.08626
G1 X87.577 Y44.205 E28.12625
G1 X86.726 Y44.976 E28.16625
G1 X85.955 Y45.827 E28.20625
G1 X85.720 Y46.145 E28.22003
G1 X85.500 Y46.072 E28.22809
G1 X85.500 Y43.650 E28.31246
G1 X78.500 Y43.650 E28.55630
G1 X78.500 Y47.350 E28.68519
G1 X84.911 Y47.350 E28.90852
G1 X84.681 Y47.734 E28.92413
G1 X84.190 Y48.772 E28.96413
G1 X83.803 Y49.853 E29.00413
G1 X83.524 Y50.967 E29.04413
G1 X83.356 Y52.103 E29.08413
G1 X83.299 Y53.250 E29.12413
G1 X83.356 Y54.397 E29.16413
G1 X83.524 Y55.533 E29.20412
G1 X83.803 Y56.647 E29.24412
G1 X84.190 Y57.728 E29.28412
G1 X84.681 Y58.766 E29.32412
G1 X85.271 Y59.751 E29.36412
G1 X85.955 Y60.673 E29.40412
G1 X86.726 Y61.524 E29.44412
G1 X87.577 Y62.295 E29.48411
G1 X88.499 Y62.979 E29.52412
G1 X89.484 Y63.569 E29.56411
G1 X90.522 Y64.060 E29.60411
G1 X91.603 Y64.447 E29.64411
G1 X92.717 Y64.726 E29.68411
G1 X93.853 Y64.894 E29.72411
G1 X95.000 Y64.951 E29.76410
G1 X96.147 Y64.894 E29.80411
G1 X97.283 Y64.726 E29.84410
G1 X98.397 Y64.447 E29.88410
G1 X99.478 Y64.060 E29.92410
G1 X100.516 Y63.569 E29.96410
G1 X101.501 Y62.979 E30.00410
G1 X102.423 Y62.295 E30.04410
G1 X103.274 Y61.524 E30.08410
G1 X104.045 Y60.673 E30.12409
G1 X104.729 Y59.751 E30.16409
G1 X105.319 Y58.766 E30.20409
G1 X105.810 Y57.728 E30.24409
G1 X106.135 Y56.820 E30.27766
G1 X106.400 Y56.866 E30.28704
G1 X106.400 Y113.134 E32.24707
G1 X106.135 Y113.180 E32.25645
G1 X105.810 Y112.272 E32.29002
G1 X105.319 Y111.234 E32.33002
G1 X104.729 Y110.249 E32.37002
G1 X104.045 Y109.327 E32.41002
G1 X103.274 Y108.476 E32.45002
G1 X102.423 Y107.705 E32.49002
G1 X101.501 Y107.021 E32.53002
G1 X100.516 Y106.431 E32.57001
G1 X99.478 Y105.940 E32.61001
G1 X98.397 Y105.553 E32.65001
G1 X97.283 Y105.274 E32.69001
G1 X96.147 Y105.106 E32.73001
G1 X95.000 Y105.049 E32.77001
G1 X93.853 Y105.106 E32.81001
G1 X92.717 Y105.274 E32.85001
G1 X91.603 Y105.553 E32.89001
G1 X90.522 Y105.940 E32.93000
G1 X89.484 Y106.431 E32.97000
G1 X88.499 Y107.021 E33.01000
G1 X87.577 Y107.705 E33.05000
G1 X86.726 Y108.476 E33.09000
G1 X85.955 Y109.327 E33.12999
G1 X85.271 Y110.249 E33.17000
G1 X84.681 Y111.234 E33.20999
G1 X84.190 Y112.272 E33.24999
G1 X83.803 Y113.353 E33.28999
G1 X83.524 Y114.467 E33.32999
G1 X83.356 Y115.603 E33.36999
G1 X83.299 Y116.750 E33.40999
G1 X83.356 Y117.897 E33.44999
G1 X83.524 Y119.033 E33.48999
G1 X83.803 Y120.147 E33.52998
G1 X84.190 Y121.228 E33.56998
G1 X84.681 Y122.266 E33.60998
G1 X84.911 Y122.650 E33.62559
G1 X78.500 Y122.650 E33.84892
G1 X78.500 Y126.350 E33.97781
G1 X85.440 Y126.350 E34.21956
G1 X87.010 Y124.740 F7800.000
G1 X86.265 Y123.919 E34.25819 F441.000
G1 X85.619 Y123.048 E34.29593
G1 X85.034 Y122.077 E34.33544
G1 X84.560 Y121.074 E34.37407
G1 X84.186 Y120.030 E34.41270
G1 X83.917 Y118.955 E34.45133
G1 X83.754 Y117.858 E34.48996
G1 X83.700 Y116.750 E34.52859
G1 X83.754 Y115.642 E34.56722
G1 X83.917 Y114.545 E34.60585
G1 X84.186 Y113.470 E34.64448
G1 X84.560 Y112.426 E34.68311
G1 X85.034 Y111.423 E34.72174
G1 X85.604 Y110.472 E34.76037
G1 X86.265 Y109.581 E34.79900
G1 X87.010 Y108.760 E34.83763
G1 X87.831 Y108.015 E34.87626
G1 X88.722 Y107.354 E34.91489
G1 X89.673 Y106.784 E34.95352
G1 X90.653 Y106.321 E34.99126
G1 X91.720 Y105.936 E35.03077
G1 X92.795 Y105.667 E35.06940
G1 X93.892 Y105.504 E35.10803
G1 X95.000 Y105.450 E35.14666
G1 X96.082 Y105.503 E35.18441
G1 X97.205 Y105.667 E35.22392 F441.000
G1 X98.280 Y105.936 E35.26255
G1 X99.324 Y106.310 E35.30118
G1 X100.327 Y106.784 E35.33981
G1 X101.278 Y107.354 E35.37844
G1 X102.169 Y108.015 E35.41707
G1 X102.990 Y108.759 E35.45570
G1 X103.735 Y109.581 E35.49432
G1 X104.396 Y110.472 E35.53296
G1 X104.966 Y111.423 E35.57158
G1 X105.440 Y112.426 E35.61022
G1 X105.814 Y113.470 E35.64884
G1 X106.083 Y114.545 E35.68747
G1 X106.246 Y115.642 E35.72610
G1 X106.300 Y116.750 E35.76473
G1 X106.242 Y117.883 E35.80424
G1 X106.083 Y118.955 E35.84199
G1 X105.814 Y120.030 E35.88062
G1 X105.440 Y121.074 E35.91925
G1 X104.966 Y122.077 E35.95788
G1 X104.381 Y123.048 E35.99739
G1 X103.735 Y123.919 E36.03513
G1 X102.990 Y124.740 E36.07376
G1 X102.169 Y125.485 E36.11239
G1 X101.278 Y126.146 E36.15102
G1 X100.327 Y126.716 E36.18965
G1 X99.324 Y127.190 E36.22828
G1 X98.280 Y127.564 E36.26691
G1 X97.205 Y127.833 E36.30554
G1 X96.108 Y127.996 E36.34417
G1 X95.000 Y128.050 E36.38280
G1 X93.892 Y127.996 E36.42143
G1 X92.795 Y127.833 E36.46006
G1 X91.720 Y127.564 E36.49869
G1 X90.676 Y127.190 E36.53732
G1 X89.673 Y126.716 E36.57595
G1 X88.722 Y126.146 E36.61458
G1 X87.831 Y125.485 E36.65321
G1 X87.054 Y124.781 E36.68975
G1 F1800.000 E35.68975
G92 E0
G1 X99.300 Y103.975 F7800.000
G1 E1.00000 F1800.000
G1 X99.300 Y97.775 E1.21597 F441.000
G1 X102.200 Y97.775 E1.31699
G1 X102.200 Y103.975 E1.53297
G1 X99.360 Y103.975 E1.63190
G1 X98.900 Y104.375 F7800.000
G1 X98.900 Y97.375 E1.87574 F630.000
G1 X102.600 Y97.375 E2.00462
G1 X102.600 Y104.375 E2.24846
G1 X98.960 Y104.375 E2.37526
G1 X75.360 Y101.484 F7800.000
G1 X73.644 Y102.475 E2.44426 F441.000
G1 X71.929 Y101.484 E2.51327
G1 X71.929 Y99.504 E2.58227
G1 X73.644 Y98.513 E2.65128
G1 X75.360 Y99.504 E2.72028
G1 X75.360 Y101.424 E2.78719
G1 X73.644 Y102.937 F7800.000
G1 X71.529 Y101.715 E2.87229 F630.000
G1 X71.529 Y99.273 E2.95738
G1 X73.644 Y98.051 E3.04247
G1 X75.760 Y99.273 E3.12757
G1 X75.760 Y101.715 E3.21266
G1 X73.696 Y102.907 E3.29566
G1 X58.979 Y122.050 F7800.000
G1 X65.100 Y122.050 E3.50890 F441.000
G1 X65.100 Y124.950 E3.60992
G1 X58.900 Y124.950 E3.82589
G1 X58.900 Y122.643 E3.90624
G1 X58.665 Y122.578 E3.91473
G1 X58.396 Y123.028 E3.93299
G1 X57.735 Y123.919 E3.97162
G1 X56.990 Y124.740 E4.01025
G1 X56.169 Y125.485 E4.04888
G1 X55.278 Y126.146 E4.08751
G1 X54.327 Y126.716 E4.12614
G1 X53.324 Y127.190 E4.16477
G1 X52.280 Y127.564 E4.20340
G1 X51.205 Y127.833 E4.24203
G1 X50.108 Y127.996 E4.28066
G1 X49.000 Y128.050 E4.31929
G1 X47.892 Y127.996 E4.35792
G1 X46.795 Y127.833 E4.39655
G1 X45.720 Y127.564 E4.43518
G1 X44.676 Y127.190 E4.47381
G1 X43.673 Y126.716 E4.51243
G1 X42.722 Y126.146 E4.55106
G1 X41.831 Y125.485 E4.58969
G1 X41.010 Y124.740 E4.62832
G1 X40.265 Y123.919 E4.66695
G1 X39.604 Y123.028 E4.70558
G1 X39.034 Y122.077 E4.74421
G1 X38.560 Y121.074 E4.78284
G1 X38.186 Y120.030 E4.82147
G1 X37.917 Y118.955 E4.86010
G1 X37.754 Y117.858 E4.89873
G1 X37.700 Y116.750 E4.93736
G1 X37.754 Y115.642 E4.97599
G1 X37.917 Y114.545 E5.01462
G1 X38.186 Y113.470 E5.05325
