; generated by Slic3r 1.1.7 on 2014-12-05 at 09:02:20

; perimeters extrusion width = 0.40mm
; infill extrusion width = 0.87mm
; solid infill extrusion width = 0.68mm
; top infill extrusion width = 0.68mm

G21 ; set units to millimeters
M104 S204 ; set temperature
G21; metric values
G90; absolute positioning
M82; set extruder to absolute mode
G28 ; home all axes
G29; autolevel
G1 Z5 F5000 ; lift nozzle
M106;fan on
M109 S204 ; wait for temperature to be reached
G90 ; use absolute coordinates
G92 E0
M82 ; use absolute distances for extrusion
G1 F1800.000 E-1.00000
G92 E0
G1 Z0.200 F7800.000
G1 X50.635 Y44.806 F7800.000
G1 E1.00000 F1800.000
G1 X52.394 Y43.288 E1.08095 F1260.000
G1 X53.792 Y42.651 E1.13446
G1 X55.469 Y42.106 E1.19588
G1 X57.570 Y41.773 E1.26999
G1 X163.071 Y41.773 E4.94503
G1 X165.360 Y42.170 E5.02598
G1 X167.383 Y43.315 E5.10693 F1260.000
G1 X168.573 Y44.578 E5.16737
G1 X169.609 Y46.004 E5.22879
G1 X170.633 Y48.090 E5.30974
G1 X170.907 Y50.000 E5.37694
G1 X170.907 Y120.000 E7.81535
G1 X170.510 Y122.290 E7.89629
G1 X169.609 Y123.996 E7.96350
G1 X168.573 Y125.422 E8.02492
G1 X166.906 Y127.042 E8.10587
G1 X164.791 Y128.005 E8.18682
G1 X163.071 Y128.227 E8.24725
G1 X57.570 Y128.227 E11.92229
G1 X55.469 Y127.894 E11.99639
G1 X53.792 Y127.349 E12.05783
G1 X51.737 Y126.264 E12.13878
G1 X50.168 Y124.550 E12.21973
G1 X49.267 Y122.408 E12.30067
G1 X49.093 Y120.882 E12.35418
G1 X49.093 Y49.118 E14.85402
G1 X49.490 Y46.829 E14.93496
G1 X50.606 Y44.859 E15.01382
G1 X50.995 Y45.018 F7800.000
G1 X51.032 Y44.956 E15.01632 F1260.000
G1 X52.776 Y43.529 E15.09483
G1 X53.916 Y43.032 E15.13815
G1 X55.593 Y42.487 E15.19957
G1 X57.570 Y42.173 E15.26932
G1 X163.071 Y42.173 E18.94436
G1 X165.289 Y42.570 E19.02288
G1 X167.233 Y43.712 E19.10139 F1260.000
G1 X168.249 Y44.813 E19.15359
G1 X169.285 Y46.239 E19.21500
G1 X170.268 Y48.268 E19.29351
G1 X170.507 Y50.000 E19.35443
G1 X170.507 Y120.000 E21.79283
G1 X170.110 Y122.219 E21.87134
G1 X169.285 Y123.761 E21.93226
G1 X168.249 Y125.187 E21.99368
G1 X166.624 Y126.749 E22.07219
G1 X164.559 Y127.651 E22.15071
G1 X163.071 Y127.827 E22.20290
G1 X57.570 Y127.827 E25.87794
G1 X55.593 Y127.513 E25.94767
G1 X53.916 Y126.968 E26.00911
G1 X51.928 Y125.905 E26.08763
G1 X50.432 Y124.219 E26.16614
G1 X49.614 Y122.119 E26.24465
G1 X49.493 Y120.882 E26.28797
G1 X49.493 Y49.118 E28.78780
G1 X49.890 Y46.900 E28.86631
G1 X50.965 Y45.070 E28.94024
G1 F1800.000 E27.94024
G92 E0
G1 X55.275 Y48.268 F7800.000
G1 E1.00000 F1800.000
G1 X57.336 Y47.598 E1.07549 F1260.000
G1 X57.492 Y47.573 E1.08097
G1 X163.311 Y47.573 E4.76712
G1 X163.739 Y47.791 E4.78385
G1 X165.009 Y49.540 E4.85914 F1260.000
G1 X165.107 Y49.842 E4.87017
G1 X165.107 Y120.158 E7.31961
G1 X165.009 Y120.459 E7.33064
G1 X163.739 Y122.209 E7.40594
G1 X163.311 Y122.427 E7.42267
G1 X57.492 Y122.427 E11.10881
G1 X57.336 Y122.402 E11.11430
G1 X55.275 Y121.732 E11.18978
G1 X54.893 Y121.207 E11.21242
G1 X54.893 Y48.793 E13.73489
G1 X55.240 Y48.316 E13.75544
G1 X55.522 Y48.608 F7800.000
G1 X57.430 Y47.988 E13.82530 F1260.000
G1 X57.523 Y47.973 E13.82859
G1 X163.215 Y47.973 E17.51029
G1 X163.472 Y48.104 E17.52033 F1260.000
G1 X164.648 Y49.724 E17.59007
G1 X164.707 Y49.905 E17.59669
G1 X164.707 Y120.095 E20.04172
G1 X164.648 Y120.276 E20.04834
G1 X163.472 Y121.896 E20.11808
G1 X163.215 Y122.027 E20.12812
G1 X57.523 Y122.027 E23.80982
G1 X57.430 Y122.012 E23.81311
G1 X55.522 Y121.392 E23.88298
G1 X55.293 Y121.077 E23.89656
G1 X55.293 Y48.923 E26.40997
G1 X55.487 Y48.656 E26.42146
G1 X55.770 Y48.948 F7800.000
G1 X57.555 Y48.373 E26.48678 F1260.000
G1 X163.119 Y48.373 E30.16405
G1 X163.204 Y48.417 E30.16739
G1 X164.287 Y49.908 E30.23159
G1 X164.307 Y49.968 E30.23379
G1 X164.307 Y120.032 E32.67440
G1 X164.287 Y120.092 E32.67661
G1 X163.204 Y121.583 E32.74080
G1 X163.119 Y121.627 E32.74415
G1 X57.555 Y121.627 E36.42141
G1 X55.770 Y121.052 E36.48673
G1 X55.693 Y120.947 E36.49126
G1 X55.693 Y49.053 E38.99562
G1 X55.734 Y48.997 E38.99806
G1 F1800.000 E37.99806
G92 E0
G1 X56.093 Y120.736 F7800.000
G1 E1.00000 F1800.000
G1 X56.093 Y49.264 E3.48971 F441.000
G1 X57.602 Y48.773 E3.54497
G1 X162.969 Y48.773 E7.21536
G1 X163.907 Y50.065 E7.27096
G1 X163.907 Y117.750 E9.62872
G1 X163.907 Y119.935 E9.70484
G1 X162.969 Y121.227 E9.76044
G1 X57.602 Y121.227 E13.43083
G1 X56.150 Y120.755 E13.48400
G1 X56.493 Y120.446 F7800.000
G1 X56.493 Y49.554 E15.95346 F630.000
G1 X57.665 Y49.173 E15.99639
G1 X162.765 Y49.173 E19.65747
G1 X163.507 Y50.195 E19.70145
G1 X163.507 Y117.750 E22.05469
G1 X163.507 Y119.805 E22.12627
G1 X162.765 Y120.827 E22.17025
G1 X57.665 Y120.827 E25.83133
G1 X56.550 Y120.464 E25.87217
G1 F1800.000 E24.87217
G92 E0
G1 X62.120 Y98.100 F7800.000
G1 E1.00000 F1800.000
G1 X59.907 Y98.100 E1.07709 F441.000
G1 X59.907 Y91.900 E1.29306
G1 X62.807 Y91.900 E1.39408
G1 X62.807 Y97.617 E1.59324
G1 X63.780 Y97.034 E1.63276
G1 X65.118 Y96.401 E1.68432
G1 X65.118 Y96.440 E1.68567
G1 X65.826 Y96.186 E1.71189
G1 X66.902 Y95.917 E1.75052
G1 X67.999 Y95.754 E1.78915
G1 X69.107 Y95.700 E1.82778
G1 X70.214 Y95.754 E1.86641
G1 X71.311 Y95.917 E1.90504
G1 X72.387 Y96.186 E1.94367
G1 X73.431 Y96.560 E1.98230
G1 X74.434 Y97.034 E2.02093
G1 X75.385 Y97.604 E2.05955
G1 X76.276 Y98.265 E2.09819
G1 X77.097 Y99.010 E2.13681
G1 X77.842 Y99.831 E2.17544
G1 X78.503 Y100.722 E2.21407
G1 X79.073 Y101.673 E2.25270
G1 X79.547 Y102.676 E2.29133
G1 X79.920 Y103.720 E2.32996
G1 X80.190 Y104.795 E2.36859
G1 X80.353 Y105.892 E2.40722
G1 X80.407 Y107.000 E2.44585
G1 X80.353 Y108.108 E2.48448
G1 X80.190 Y109.205 E2.52311
G1 X79.920 Y110.280 E2.56174
G1 X79.547 Y111.324 E2.60037
G1 X79.073 Y112.327 E2.63900
G1 X78.503 Y113.278 E2.67763
G1 X77.842 Y114.169 E2.71626
G1 X77.080 Y115.006 E2.75570
G1 X76.276 Y115.735 E2.79351
G1 X75.385 Y116.396 E2.83214
G1 X74.434 Y116.966 E2.87077
G1 X73.431 Y117.440 E2.90940
G1 X72.387 Y117.814 E2.94803
G1 X71.311 Y118.083 E2.98666
G1 X70.214 Y118.246 E3.02529
G1 X69.107 Y118.300 E3.06392
G1 X67.999 Y118.246 E3.10255
G1 X66.902 Y118.083 E3.14118
G1 X65.826 Y117.814 E3.17981
G1 X64.782 Y117.440 E3.21844
G1 X63.780 Y116.966 E3.25707
G1 X62.829 Y116.396 E3.29570
G1 X61.938 Y115.735 E3.33433
G1 X61.116 Y114.990 E3.37296
G1 X60.372 Y114.169 E3.41159
G1 X59.711 Y113.278 E3.45022
G1 X59.141 Y112.327 E3.48885
G1 X58.667 Y111.324 E3.52748
G1 X58.293 Y110.280 E3.56611
G1 X58.024 Y109.205 E3.60474
G1 X57.861 Y108.108 E3.64337
G1 X57.807 Y107.000 E3.68200
G1 X57.861 Y105.892 E3.72063
G1 X58.024 Y104.795 E3.75926
G1 X58.293 Y103.720 E3.79789
G1 X58.667 Y102.676 E3.83652
G1 X59.141 Y101.673 E3.87515
G1 X59.711 Y100.722 E3.91377
G1 X60.372 Y99.831 E3.95241
G1 X61.116 Y99.010 E3.99103
G1 X62.075 Y98.140 E4.03612
G1 X61.038 Y98.500 F7800.000
G1 X59.507 Y98.500 E4.08947 F630.000
G1 X59.507 Y91.500 E4.33331
G1 X63.207 Y91.500 E4.46220
G1 X63.207 Y96.911 E4.65070
G1 X63.591 Y96.681 E4.66630
G1 X65.518 Y95.769 E4.74055
G1 X65.518 Y95.851 E4.74341
G1 X66.824 Y95.524 E4.79031
G1 X67.960 Y95.356 E4.83031
G1 X69.107 Y95.299 E4.87031
G1 X70.254 Y95.356 E4.91031
G1 X71.389 Y95.524 E4.95031
G1 X72.503 Y95.803 E4.99031
G1 X73.584 Y96.190 E5.03030
G1 X74.622 Y96.681 E5.07030
G1 X75.607 Y97.271 E5.11030
G1 X76.530 Y97.955 E5.15030
G1 X77.380 Y98.726 E5.19030
G1 X78.152 Y99.577 E5.23030
G1 X78.836 Y100.499 E5.27030
G1 X79.426 Y101.484 E5.31029
G1 X79.917 Y102.522 E5.35029
G1 X80.304 Y103.603 E5.39029
G1 X80.583 Y104.717 E5.43029
G1 X80.751 Y105.853 E5.47029
G1 X80.807 Y107.000 E5.51029
G1 X80.751 Y108.147 E5.55029
G1 X80.583 Y109.283 E5.59029
G1 X80.304 Y110.397 E5.63029
G1 X79.917 Y111.478 E5.67028
G1 X79.426 Y112.516 E5.71028
G1 X78.836 Y113.501 E5.75028
G1 X78.152 Y114.423 E5.79028
G1 X77.409 Y115.242 E5.82878
G1 X76.530 Y116.045 E5.87027
G1 X75.607 Y116.729 E5.91027
G1 X74.622 Y117.319 E5.95027
G1 X73.584 Y117.810 E5.99027
G1 X72.503 Y118.197 E6.03026
G1 X71.389 Y118.476 E6.07026
G1 X70.254 Y118.644 E6.11026
G1 X69.107 Y118.701 E6.15026
G1 X67.960 Y118.644 E6.19026
G1 X66.824 Y118.476 E6.23026
G1 X65.710 Y118.197 E6.27026
G1 X64.629 Y117.810 E6.31025
G1 X63.591 Y117.319 E6.35026
G1 X62.606 Y116.729 E6.39025
G1 X61.684 Y116.045 E6.43025
G1 X60.833 Y115.274 E6.47025
G1 X60.062 Y114.423 E6.51025
G1 X59.378 Y113.501 E6.55025
G1 X58.788 Y112.516 E6.59025
G1 X58.297 Y111.478 E6.63025
G1 X57.910 Y110.397 E6.67024
G1 X57.631 Y109.283 E6.71024
G1 X57.462 Y108.147 E6.75024
G1 X57.406 Y107.000 E6.79024
G1 X57.462 Y105.853 E6.83024
G1 X57.631 Y104.717 E6.87024
G1 X57.910 Y103.603 E6.91024
G1 X58.297 Y102.522 E6.95024
G1 X58.788 Y101.484 E6.99023
G1 X59.378 Y100.499 E7.03023
G1 X60.062 Y99.577 E7.07023
G1 X60.998 Y98.544 E7.11878
G1 F1800.000 E6.11878
G92 E0
G1 X93.372 Y88.360 F7800.000
G1 E1.00000 F1800.000
G1 X92.382 Y86.644 E1.06900 F441.000
G1 X93.372 Y84.929 E1.13801
G1 X95.353 Y84.929 E1.20701
G1 X96.344 Y86.644 E1.27602
G1 X95.353 Y88.360 E1.34502
G1 X93.432 Y88.360 E1.41193
G1 X91.920 Y86.644 F7800.000
G1 X93.141 Y84.529 E1.49703 F630.000
G1 X95.584 Y84.529 E1.58212
G1 X96.806 Y86.644 E1.66721
G1 X95.584 Y88.760 E1.75231
G1 X93.141 Y88.760 E1.83740
G1 X91.950 Y86.696 E1.92040
G1 X90.882 Y113.300 F7800.000
G1 X97.082 Y113.300 E2.13638 F441.000
G1 X97.082 Y116.200 E2.23740
G1 X90.882 Y116.200 E2.45337
G1 X90.882 Y113.360 E2.55230
G1 X90.482 Y112.900 F7800.000
G1 X97.482 Y112.900 E2.79614 F630.000
G1 X97.482 Y116.600 E2.92503
G1 X90.482 Y116.600 E3.16887
G1 X90.482 Y112.960 E3.29566
G1 X122.632 Y113.300 F7800.000
G1 X128.832 Y113.300 E3.51164 F441.000
G1 X128.832 Y116.200 E3.61266
G1 X122.632 Y116.200 E3.82863
G1 X122.632 Y113.360 E3.92756
G1 X122.232 Y112.900 F7800.000
G1 X129.232 Y112.900 E4.17140 F630.000
G1 X129.232 Y116.600 E4.30029
G1 X122.232 Y116.600 E4.54413
G1 X122.232 Y112.960 E4.67093
G1 X124.360 Y88.360 F7800.000
G1 X123.370 Y86.644 E4.73993 F441.000
G1 X124.360 Y84.929 E4.80893
G1 X126.341 Y84.929 E4.87794
G1 X127.332 Y86.644 E4.94694
G1 X126.341 Y88.360 E5.01594
G1 X124.420 Y88.360 E5.08286
G1 X122.908 Y86.644 F7800.000
G1 X124.129 Y84.529 E5.16795 F630.000
G1 X126.572 Y84.529 E5.25305
G1 X127.794 Y86.644 E5.33814
G1 X126.572 Y88.760 E5.42323
G1 X124.129 Y88.760 E5.50832
G1 X122.938 Y86.696 E5.59133
G1 X124.360 Y57.372 F7800.000
G1 X123.370 Y55.656 E5.66033 F441.000
G1 X124.360 Y53.940 E5.72934
G1 X126.341 Y53.940 E5.79834
G1 X127.332 Y55.656 E5.86735
G1 X126.341 Y57.372 E5.93635
G1 X124.420 Y57.372 E6.00327
G1 X122.908 Y55.656 F7800.000
G1 X124.129 Y53.540 E6.08836 F630.000
G1 X126.572 Y53.540 E6.17345
G1 X127.794 Y55.656 E6.25855
G1 X126.572 Y57.772 E6.34364
G1 X124.129 Y57.772 E6.42873
G1 X122.938 Y55.708 E6.51174
G1 X117.351 Y62.827 F7800.000
G1 X118.917 Y64.567 E6.59329 F441.000
G1 X120.088 Y66.595 E6.67485
G1 X120.811 Y68.821 E6.75641
G1 X121.056 Y71.150 E6.83797
G1 X120.811 Y73.479 E6.91953
G1 X120.088 Y75.705 E7.00108
G1 X118.985 Y77.615 E7.07790
G1 X118.917 Y77.733 E7.08264
G1 X117.351 Y79.473 E7.16420
G1 X115.456 Y80.849 E7.24575
G1 X113.318 Y81.801 E7.32731
G1 X111.027 Y82.288 E7.40887
G1 X108.686 Y82.288 E7.49042
G1 X106.396 Y81.801 E7.57198
G1 X104.257 Y80.849 E7.65354
G1 X102.363 Y79.473 E7.73510
G1 X100.796 Y77.733 E7.81665
G1 X99.626 Y75.705 E7.89821
G1 X98.902 Y73.479 E7.97977
G1 X98.657 Y71.150 E8.06133
G1 X98.902 Y68.821 E8.14289
G1 X99.626 Y66.595 E8.22444
G1 X100.796 Y64.567 E8.30600
G1 X102.363 Y62.827 E8.38756
G1 X104.257 Y61.451 E8.46911
G1 X106.396 Y60.499 E8.55067
G1 X108.686 Y60.012 E8.63223
G1 X111.027 Y60.012 E8.71378 F441.000
G1 X113.318 Y60.499 E8.79534
G1 X115.456 Y61.451 E8.87690
G1 X117.302 Y62.792 E8.95637
G1 X117.648 Y62.560 F7800.000
G1 X119.243 Y64.331 E9.03939 F630.000
G1 X120.455 Y66.431 E9.12387
G1 X121.205 Y68.738 E9.20836
G1 X121.458 Y71.150 E9.29285
G1 X121.205 Y73.562 E9.37734
G1 X120.455 Y75.869 E9.46182
G1 X119.243 Y77.969 E9.54631
G1 X117.620 Y79.772 E9.63079
G1 X115.658 Y81.197 E9.71528
G1 X113.442 Y82.184 E9.79977
G1 X111.069 Y82.688 E9.88425
G1 X108.644 Y82.688 E9.96874
G1 X106.272 Y82.184 E10.05322
G1 X104.056 Y81.197 E10.13771
G1 X102.094 Y79.772 E10.22220
G1 X100.471 Y77.969 E10.30668
G1 X99.258 Y75.869 E10.39117
G1 X98.509 Y73.562 E10.47565
G1 X98.255 Y71.150 E10.56014
G1 X98.509 Y68.738 E10.64463
G1 X99.258 Y66.431 E10.72912
G1 X100.471 Y64.331 E10.81360
G1 X102.094 Y62.528 E10.89809
G1 X104.056 Y61.103 E10.98257
G1 X106.272 Y60.116 E11.06706
G1 X108.644 Y59.612 E11.15155
G1 X111.069 Y59.612 E11.23603
G1 X111.244 Y59.649 E11.24223
G1 X113.442 Y60.116 E11.32052 F630.000
G1 X115.658 Y61.103 E11.40500
G1 X117.605 Y62.518 E11.48886
G1 F1800.000 E10.48886
G92 E0
G1 X96.344 Y55.656 F7800.000
G1 E1.00000 F1800.000
G1 X95.353 Y57.372 E1.06901 F441.000
G1 X93.372 Y57.372 E1.13801
G1 X93.271 Y57.196 E1.14508
G1 X92.382 Y55.656 E1.20701
G1 X93.372 Y53.940 E1.27602
G1 X95.353 Y53.940 E1.34502
G1 X96.314 Y55.604 E1.41194
G1 X96.806 Y55.656 F7800.000
G1 X95.584 Y57.772 E1.49703 F630.000
G1 X93.141 Y57.772 E1.58213
G1 X92.924 Y57.396 E1.59724
G1 X91.920 Y55.656 E1.66722
G1 X93.141 Y53.540 E1.75231
G1 X95.584 Y53.540 E1.83741
G1 X96.776 Y55.604 E1.92041
G1 F1800.000 E0.92041
G92 E0
G1 X62.807 Y72.383 F7800.000
G1 E1.00000 F1800.000
G1 X62.807 Y78.100 E1.19916 F441.000
G1 X59.907 Y78.100 E1.30018
G1 X59.907 Y71.900 E1.51615
G1 X62.120 Y71.900 E1.59324
G1 X61.116 Y70.990 E1.64042
G1 X60.372 Y70.169 E1.67905
G1 X59.711 Y69.278 E1.71768
G1 X59.141 Y68.327 E1.75631
G1 X58.667 Y67.324 E1.79494
G1 X58.293 Y66.280 E1.83357
G1 X58.024 Y65.205 E1.87220
G1 X57.861 Y64.108 E1.91083
G1 X57.807 Y63.000 E1.94946
G1 X57.861 Y61.892 E1.98809
G1 X58.024 Y60.795 E2.02672
G1 X58.293 Y59.720 E2.06535
G1 X58.667 Y58.676 E2.10398
G1 X59.141 Y57.673 E2.14261
G1 X59.711 Y56.722 E2.18124
G1 X60.372 Y55.831 E2.21987
G1 X61.116 Y55.010 E2.25850
G1 X61.938 Y54.265 E2.29713
G1 X62.829 Y53.604 E2.33576
G1 X63.780 Y53.034 E2.37439
G1 X64.782 Y52.560 E2.41301
G1 X65.827 Y52.186 E2.45165
G1 X66.902 Y51.917 E2.49027
G1 X67.999 Y51.754 E2.52890
G1 X69.107 Y51.700 E2.56753
G1 X70.214 Y51.754 E2.60616
G1 X71.311 Y51.917 E2.64479
G1 X72.387 Y52.186 E2.68342
G1 X73.431 Y52.560 E2.72205
G1 X74.434 Y53.034 E2.76068
G1 X75.385 Y53.604 E2.79931
G1 X76.276 Y54.265 E2.83794
G1 X77.097 Y55.010 E2.87657
G1 X77.842 Y55.831 E2.91520
G1 X78.503 Y56.722 E2.95383
G1 X79.073 Y57.673 E2.99246
G1 X79.547 Y58.676 E3.03109
G1 X79.920 Y59.720 E3.06972
G1 X80.190 Y60.795 E3.10835
G1 X80.353 Y61.892 E3.14698
G1 X80.407 Y63.000 E3.18561
G1 X80.353 Y64.108 E3.22424
G1 X80.190 Y65.205 E3.26287
G1 X79.920 Y66.280 E3.30150
G1 X79.547 Y67.324 E3.34013
G1 X79.073 Y68.327 E3.37876
G1 X78.503 Y69.278 E3.41739
G1 X77.842 Y70.169 E3.45602
G1 X77.097 Y70.990 E3.49465
G1 X76.276 Y71.735 E3.53327
G1 X75.385 Y72.396 E3.57191
G1 X74.434 Y72.966 E3.61053
G1 X73.431 Y73.440 E3.64916
G1 X72.387 Y73.814 E3.68779
G1 X71.311 Y74.083 E3.72642
G1 X70.214 Y74.246 E3.76505
G1 X69.107 Y74.300 E3.80368
G1 X67.999 Y74.246 E3.84231
G1 X66.902 Y74.083 E3.88094
G1 X65.826 Y73.814 E3.91957
G1 X65.118 Y73.560 E3.94579
G1 X65.118 Y73.599 E3.94714
G1 X63.780 Y72.966 E3.99870
G1 X62.858 Y72.414 E4.03613
G1 X63.207 Y73.089 F7800.000
G1 X63.207 Y78.500 E4.22462 F630.000
G1 X59.507 Y78.500 E4.35351
G1 X59.507 Y71.500 E4.59735
G1 X61.038 Y71.500 E4.65070
G1 X60.062 Y70.423 E4.70134
G1 X59.378 Y69.501 E4.74134
G1 X58.788 Y68.516 E4.78134
G1 X58.297 Y67.478 E4.82134
G1 X57.910 Y66.397 E4.86133
G1 X57.631 Y65.283 E4.90133
G1 X57.460 Y64.104 E4.94282
G1 X57.406 Y63.000 E4.98133
G1 X57.462 Y61.853 E5.02132
G1 X57.631 Y60.717 E5.06132
G1 X57.910 Y59.604 E5.10132
G1 X58.297 Y58.522 E5.14132
G1 X58.788 Y57.484 E5.18132
G1 X59.378 Y56.499 E5.22132
G1 X60.062 Y55.577 E5.26132
G1 X60.833 Y54.726 E5.30131
G1 X61.684 Y53.955 E5.34131
G1 X62.606 Y53.271 E5.38131
G1 X63.591 Y52.681 E5.42131
G1 X64.629 Y52.190 E5.46131
G1 X65.710 Y51.803 E5.50131
G1 X66.824 Y51.524 E5.54130
G1 X67.960 Y51.356 E5.58130
G1 X69.107 Y51.299 E5.62130
G1 X70.254 Y51.356 E5.66130
G1 X71.389 Y51.524 E5.70130
G1 X72.503 Y51.803 E5.74130
G1 X73.584 Y52.190 E5.78130
G1 X74.622 Y52.681 E5.82130
G1 X75.607 Y53.271 E5.86129
G1 X76.530 Y53.955 E5.90130
