; generated by Slic3r 1.1.7 on 2014-12-03 at 21:29:30

; perimeters extrusion width = 0.40mm
; infill extrusion width = 0.87mm
; solid infill extrusion width = 0.68mm
; top infill extrusion width = 0.68mm

G21 ; set units to millimeters
M104 S204 ; set temperature
G21; metric values
G90; absolute positioning
M82; set extruder to absolute mode
G28 ; home all axes
G29; autolevel
G1 Z5 F5000 ; lift nozzle
M106;fan on
M109 S204 ; wait for temperature to be reached
G90 ; use absolute coordinates
G92 E0
M82 ; use absolute distances for extrusion
G1 F1800.000 E-1.00000
G92 E0
G1 Z0.200 F7800.000
G1 X63.089 Y66.554 F7800.000
G1 E1.00000 F1800.000
G1 X64.885 Y64.938 E1.08416 F1260.000
G1 X66.852 Y63.702 E1.16511
G1 X69.433 Y63.193 E1.25673
G1 X150.567 Y63.193 E4.08299
G1 X152.857 Y63.590 E4.16393
G1 X155.115 Y64.938 E4.25556 F1260.000
G1 X156.911 Y66.554 E4.33972
G1 X157.864 Y67.611 E4.38929
G1 X160.322 Y70.994 E4.53493
G1 X161.034 Y72.227 E4.58452
G1 X162.734 Y76.047 E4.73017
G1 X163.172 Y77.396 E4.77962
G1 X164.042 Y81.486 E4.92528
G1 X164.191 Y82.901 E4.97483
G1 X164.191 Y87.083 E5.12051
G1 X164.042 Y88.498 E5.17006
G1 X163.172 Y92.588 E5.31572
G1 X162.733 Y93.939 E5.36521
G1 X161.033 Y97.757 E5.51080
G1 X160.323 Y98.988 E5.56029
G1 X157.865 Y102.372 E5.70598
G1 X156.911 Y103.430 E5.75561
G1 X155.115 Y105.046 E5.83977
G1 X153.148 Y106.283 E5.92072
G1 X150.567 Y106.791 E6.01235
G1 X69.433 Y106.791 E8.83860
G1 X67.143 Y106.394 E8.91954
G1 X64.885 Y105.046 E9.01117
G1 X63.089 Y103.430 E9.09533
G1 X62.135 Y102.372 E9.14496
G1 X59.677 Y98.988 E9.29066
G1 X58.967 Y97.757 E9.34014
G1 X57.267 Y93.939 E9.48573
G1 X56.828 Y92.588 E9.53521
G1 X55.958 Y88.498 E9.68088
G1 X55.809 Y87.083 E9.73043
G1 X55.809 Y82.901 E9.87611
G1 X55.958 Y81.486 E9.92567
G1 X56.828 Y77.396 E10.07133
G1 X57.266 Y76.047 E10.12076
G1 X58.966 Y72.227 E10.26642
G1 X59.678 Y70.994 E10.31601
G1 X62.136 Y67.611 E10.46166
G1 X63.049 Y66.599 E10.50913
G1 X63.356 Y66.852 F7800.000
G1 X65.152 Y65.236 E10.59329 F1260.000
G1 X67.067 Y64.047 E10.67180
G1 X69.433 Y63.593 E10.75572
G1 X150.567 Y63.593 E13.58197
G1 X152.786 Y63.990 E13.66049
G1 X154.848 Y65.236 E13.74441 F1260.000
G1 X156.644 Y66.852 E13.82857
G1 X157.540 Y67.847 E13.87521
G1 X159.998 Y71.229 E14.02085
G1 X160.668 Y72.389 E14.06753
G1 X162.368 Y76.209 E14.21319
G1 X162.781 Y77.480 E14.25972
G1 X163.651 Y81.570 E14.40538
G1 X163.791 Y82.901 E14.45202
G1 X163.791 Y87.083 E14.59770
G1 X163.651 Y88.415 E14.64434
G1 X162.781 Y92.505 E14.79000
G1 X162.368 Y93.777 E14.83658
G1 X160.668 Y97.595 E14.98216
G1 X159.999 Y98.752 E15.02874
G1 X157.541 Y102.137 E15.17443
G1 X156.644 Y103.133 E15.22114
G1 X154.848 Y104.749 E15.30530
G1 X152.933 Y105.938 E15.38382
G1 X150.567 Y106.391 E15.46773
G1 X69.433 Y106.391 E18.29398
G1 X67.214 Y105.994 E18.37250
G1 X65.152 Y104.749 E18.45641
G1 X63.356 Y103.133 E18.54057
G1 X62.459 Y102.136 E18.58729
G1 X60.001 Y98.752 E18.73298
G1 X59.332 Y97.595 E18.77955
G1 X57.632 Y93.777 E18.92514
G1 X57.219 Y92.505 E18.97172
G1 X56.349 Y88.415 E19.11738
G1 X56.209 Y87.083 E19.16402
G1 X56.209 Y82.901 E19.30970
G1 X56.349 Y81.570 E19.35634
G1 X57.219 Y77.480 E19.50200
G1 X57.632 Y76.209 E19.54852
G1 X59.332 Y72.389 E19.69418
G1 X60.002 Y71.229 E19.74086
G1 X62.460 Y67.847 E19.88650
G1 X63.316 Y66.896 E19.93106
G1 F1800.000 E18.93106
G92 E0
G1 X152.599 Y86.206 F7800.000
G1 E1.00000 F1800.000
G1 X150.499 Y87.418 E1.08447 F630.000
G1 X148.399 Y86.206 E1.16894
G1 X148.399 Y83.779 E1.25347
G1 X150.499 Y82.566 E1.33794
G1 X152.599 Y83.779 E1.42241
G1 X152.599 Y86.146 E1.50486
G1 X152.199 Y85.975 F7800.000
G1 X150.499 Y86.956 E1.57324 F441.000
G1 X148.799 Y85.975 E1.64161
G1 X148.799 Y84.010 E1.71006
G1 X150.499 Y83.028 E1.77844
G1 X152.199 Y84.010 E1.84682
G1 X152.199 Y85.915 E1.91318
G1 X152.336 Y86.351 F7800.000
G1 X131.599 Y99.391 F7800.000
G1 X131.599 Y97.854 E1.96673 F630.000
G1 X141.369 Y88.084 E2.44804
G1 X141.369 Y81.901 E2.66341
G1 X131.599 Y72.131 E3.14472
G1 X131.599 Y70.593 E3.19827
G1 X150.337 Y70.593 E3.85099
G1 X151.915 Y72.013 E3.92494
G1 X154.299 Y75.293 E4.06618
G1 X155.947 Y78.998 E4.20743
G1 X156.791 Y82.964 E4.34870
G1 X156.791 Y87.020 E4.48998
G1 X155.947 Y90.987 E4.63125
G1 X154.299 Y94.690 E4.77244
G1 X151.915 Y97.972 E4.91374
G1 X150.337 Y99.391 E4.98768
G1 X131.659 Y99.391 E5.63831
G1 X131.199 Y99.791 F7800.000
G1 X131.199 Y97.688 E5.71157 F441.000
G1 X140.969 Y87.918 E6.19287
G1 X140.969 Y82.066 E6.39671
G1 X131.199 Y72.296 E6.87801
G1 X131.199 Y70.193 E6.95127
G1 X150.490 Y70.193 E7.62327
G1 X152.214 Y71.744 E7.70403
G1 X154.647 Y75.092 E7.84820
G1 X156.330 Y78.873 E7.99238
G1 X157.191 Y82.922 E8.13658
G1 X157.191 Y87.062 E8.28079
G1 X156.330 Y91.111 E8.42499
G1 X154.647 Y94.891 E8.56911
G1 X152.214 Y98.241 E8.71334
G1 X150.490 Y99.791 E8.79409
G1 X131.259 Y99.791 E9.46400
G1 X131.399 Y99.445 F7800.000
G1 X131.869 Y99.081 F7800.000
G1 X131.909 Y99.121 E9.46597 F1260.000
G1 X132.479 Y99.121 E9.48581
G1 X131.869 Y98.512 E9.51584
G1 X131.881 Y97.954 E9.53527
G1 X133.048 Y99.121 E9.59278
G1 X133.618 Y99.121 E9.61262
G1 X132.165 Y97.669 E9.68416
G1 X132.450 Y97.384 E9.69819
G1 X134.187 Y99.121 E9.78375
G1 X134.757 Y99.121 E9.80359
G1 X132.735 Y97.100 E9.90319
G1 X133.020 Y96.815 E9.91722
G1 X135.326 Y99.121 E10.03084
G1 X135.896 Y99.121 E10.05068
G1 X133.305 Y96.530 E10.17833
G1 X133.589 Y96.245 E10.19236
G1 X136.465 Y99.121 E10.33404
G1 X137.035 Y99.121 E10.35388
G1 X133.874 Y95.961 E10.50959
G1 X134.159 Y95.676 E10.52362
G1 X137.604 Y99.121 E10.69336
G1 X138.174 Y99.121 E10.71320
G1 X134.444 Y95.391 E10.89696
G1 X134.728 Y95.106 E10.91099
G1 X138.743 Y99.121 E11.10879
G1 X139.313 Y99.121 E11.12863
G1 X135.013 Y94.821 E11.34045
G1 X135.298 Y94.537 E11.35448
G1 X139.883 Y99.121 E11.58033
G1 X140.452 Y99.121 E11.60017
G1 X135.583 Y94.252 E11.84006
G1 X135.867 Y93.967 E11.85408
G1 X141.022 Y99.121 E12.10800
G1 X141.591 Y99.121 E12.12783
G1 X136.152 Y93.682 E12.39577
G1 X136.437 Y93.398 E12.40980
G1 X142.161 Y99.121 E12.69177
G1 X142.730 Y99.121 E12.71161
G1 X136.722 Y93.113 E13.00761
G1 X137.007 Y92.828 E13.02164
G1 X143.300 Y99.121 E13.33166
G1 X143.869 Y99.121 E13.35150
G1 X137.291 Y92.543 E13.67556
G1 X137.576 Y92.259 E13.68959
G1 X144.439 Y99.121 E14.02767
G1 X145.008 Y99.121 E14.04751
G1 X137.861 Y91.974 E14.39962
G1 X138.146 Y91.689 E14.41365
G1 X145.578 Y99.121 E14.77979
G1 X146.147 Y99.121 E14.79963
G1 X138.430 Y91.404 E15.17980
G1 X138.715 Y91.119 E15.19383
G1 X146.717 Y99.121 E15.58803
G1 X147.287 Y99.121 E15.60787
G1 X139.000 Y90.835 E16.01610
G1 X139.285 Y90.550 E16.03012
G1 X147.856 Y99.121 E16.45238
G1 X148.426 Y99.121 E16.47222
G1 X139.569 Y90.265 E16.90850
G1 X139.854 Y89.980 E16.92253
G1 X148.995 Y99.121 E17.37285
G1 X149.565 Y99.121 E17.39269
G1 X140.139 Y89.696 E17.85703
G1 X140.424 Y89.411 E17.87106
G1 X150.134 Y99.121 E18.34943
G1 X150.481 Y98.898 E18.36379
G1 X140.708 Y89.126 E18.84521
G1 X140.993 Y88.841 E18.85924
G1 X150.781 Y98.629 E19.34140
G1 X151.080 Y98.359 E19.35545
G1 X141.278 Y88.556 E19.83835
G1 X141.563 Y88.272 E19.85238
G1 X151.380 Y98.089 E20.33602
G1 X151.668 Y97.807 E20.35005
G1 X141.639 Y87.778 E20.84409
G1 X141.639 Y87.209 E20.86393
G1 X151.926 Y97.496 E21.37071
G1 X152.166 Y97.166 E21.38492
G1 X141.639 Y86.639 E21.90351
G1 X141.639 Y86.070 E21.92335
G1 X152.406 Y96.836 E22.45375
G1 X152.645 Y96.506 E22.46795
G1 X141.639 Y85.500 E23.01015
G1 X141.639 Y84.931 E23.02999
G1 X152.885 Y96.177 E23.58400
G1 X153.124 Y95.847 E23.59820
G1 X141.639 Y84.361 E24.16401
G1 X141.639 Y83.792 E24.18385
G1 X153.364 Y95.517 E24.76147
G1 X153.604 Y95.187 E24.77568
G1 X141.639 Y83.222 E25.36510
G1 X141.639 Y82.653 E25.38494
G1 X153.843 Y94.857 E25.98616
G1 X154.078 Y94.522 E26.00041
G1 X141.639 Y82.083 E26.61319
G1 X150.407 Y82.308 F7800.000
G1 X138.962 Y70.863 E27.17698 F1260.000
G1 X138.393 Y70.863 E27.19682
G1 X150.046 Y82.516 E27.77089
G1 X149.685 Y82.725 E27.78541
G1 X137.823 Y70.863 E28.36975
G1 X137.254 Y70.863 E28.38959
G1 X149.324 Y82.933 E28.98420
G1 X148.963 Y83.142 E28.99872
G1 X136.684 Y70.863 E29.60360
G1 X136.115 Y70.863 E29.62344
G1 X148.602 Y83.350 E30.23858
G1 X148.240 Y83.559 E30.25311
G1 X135.545 Y70.863 E30.87852
G1 X134.976 Y70.863 E30.89836
G1 X148.129 Y84.017 E31.54634
G1 X148.129 Y84.586 E31.56618
G1 X134.406 Y70.863 E32.24222
G1 X133.837 Y70.863 E32.26206
G1 X148.129 Y85.156 E32.96615
G1 X148.129 Y85.725 E32.98599
G1 X133.267 Y70.863 E33.71815
G1 X132.697 Y70.863 E33.73799
G1 X154.780 Y92.945 E34.82583
G1 X154.955 Y92.551 E34.84085
G1 X149.634 Y87.231 E35.10297
G1 X150.628 Y87.655 F7800.000
G1 X155.131 Y92.157 E35.32476 F1260.000
G1 X155.306 Y91.763 E35.33979
G1 X150.989 Y87.447 E35.55244
G1 X151.351 Y87.238 E35.56696
G1 X155.481 Y91.369 E35.77046
G1 X155.657 Y90.975 E35.78549
G1 X151.712 Y87.030 E35.97985
G1 X152.073 Y86.821 E35.99437
G1 X155.771 Y90.519 E36.17655
G1 X155.871 Y90.050 E36.19327
G1 X152.434 Y86.613 E36.36258
G1 X152.795 Y86.404 E36.37710
G1 X155.970 Y89.580 E36.53354
G1 X156.070 Y89.110 E36.55027
G1 X152.869 Y85.909 E36.70798
G1 X152.869 Y85.339 E36.72782
G1 X156.170 Y88.641 E36.89045
G1 X156.270 Y88.171 E36.90718
G1 X152.869 Y84.770 E37.07473
G1 X152.869 Y84.200 E37.09457
G1 X156.370 Y87.701 E37.26705
G1 X154.604 Y93.340 F7800.000
G1 X132.128 Y70.863 E38.37430 F1260.000
G1 X131.869 Y71.174 E38.38839
G1 X154.429 Y93.734 E39.49975
G1 X154.253 Y94.128 E39.51478
G1 X131.869 Y71.743 E40.61750
G1 X149.784 Y70.863 F7800.000
G1 X153.304 Y74.383 E40.79091 F1260.000
G1 X154.291 Y75.940 F7800.000
G1 X149.214 Y70.863 E41.04102 F1260.000
G1 X148.645 Y70.863 E41.06086
G1 X154.748 Y76.967 E41.36153
G1 X155.205 Y77.993 F7800.000
G1 X148.075 Y70.863 E41.71275 F1260.000
G1 X147.505 Y70.863 E41.73259
G1 X155.661 Y79.019 E42.13437
G1 X155.834 Y79.761 E42.16090
G1 X146.936 Y70.863 E42.59923
G1 X146.366 Y70.863 E42.61907
G1 X155.987 Y80.484 E43.09304
G1 X156.141 Y81.208 E43.11880
G1 X145.797 Y70.863 E43.62840
G1 X145.227 Y70.863 E43.64824
G1 X156.295 Y81.931 E44.19348
G1 X156.449 Y82.655 E44.21925
G1 X144.658 Y70.863 E44.80013
G1 X144.088 Y70.863 E44.81997
G1 X156.521 Y83.296 E45.43245
G1 X156.521 Y83.866 E45.45229
G1 X143.519 Y70.863 E46.09283
G1 X142.949 Y70.863 E46.11266
G1 X156.521 Y84.435 E46.78126
G1 X156.521 Y85.005 E46.80110
G1 X142.380 Y70.863 E47.49775
G1 X141.810 Y70.863 E47.51759
G1 X156.521 Y85.574 E48.24230
G1 X156.521 Y86.144 E48.26214
G1 X141.241 Y70.863 E49.01491
G1 X140.671 Y70.863 E49.03475
G1 X156.521 Y86.713 E49.81557
G1 X156.470 Y87.232 E49.83372
G1 X140.101 Y70.863 E50.64009
G1 X139.532 Y70.863 E50.65993
G1 X151.503 Y82.834 E51.24966
G1 X151.789 Y72.299 F7800.000
G1 X151.430 Y71.940 E51.26735 F1260.000
G1 F1800.000 E50.26735
G92 E0
G1 X75.373 Y95.591 F7800.000
G1 E1.00000 F1800.000
G1 X71.084 Y95.591 E1.14938 F630.000
G1 X70.558 Y90.021 E1.34429
G1 X70.401 Y84.991 E1.51958
G1 X70.558 Y79.964 E1.69480
G1 X71.085 Y74.391 E1.88977
G1 X75.372 Y74.391 E2.03913
G1 X75.199 Y75.481 E2.07756
G1 X74.750 Y80.227 E2.24363
G1 X74.599 Y84.991 E2.40967
G1 X74.750 Y89.758 E2.57578
G1 X75.199 Y94.504 E2.74184
G1 X75.363 Y95.532 E2.77813
G1 X74.904 Y95.191 F7800.000
G1 X71.448 Y95.191 E2.89848 F441.000
G1 X70.957 Y89.996 E3.08027
G1 X70.801 Y84.991 E3.25469
G1 X70.957 Y79.989 E3.42903
G1 X71.449 Y74.791 E3.61089
G1 X74.903 Y74.791 E3.73124
G1 X74.802 Y75.430 E3.75378
G1 X74.351 Y80.202 E3.92073
G1 X74.199 Y84.991 E4.08765
G1 X74.351 Y89.783 E4.25464
G1 X74.802 Y94.554 E4.42159
G1 X74.894 Y95.132 E4.44198
G1 X74.925 Y95.591 F7800.000
G1 X93.399 Y99.391 F7800.000
G1 X69.663 Y99.391 E5.26880 F630.000
G1 X68.085 Y97.972 E5.34274
G1 X65.701 Y94.690 E5.48404
G1 X64.053 Y90.987 E5.62523
G1 X63.209 Y87.020 E5.76650
G1 X63.209 Y82.964 E5.90778
G1 X64.053 Y78.998 E6.04905
G1 X65.701 Y75.293 E6.19030
G1 X68.085 Y72.013 E6.33154
G1 X69.663 Y70.593 E6.40548
G1 X93.399 Y70.593 E7.23231
G1 X93.399 Y72.131 E7.28586
G1 X83.629 Y81.901 E7.76717
G1 X83.629 Y88.084 E7.98254
G1 X93.399 Y97.854 E8.46385
G1 X93.399 Y99.331 E8.51531
G1 X93.799 Y99.791 F7800.000
G1 X69.510 Y99.791 E9.36142 F441.000
G1 X67.786 Y98.241 E9.44217
G1 X65.353 Y94.891 E9.58640
G1 X63.670 Y91.111 E9.73052
G1 X62.809 Y87.062 E9.87472
G1 X62.809 Y82.922 E10.01893
G1 X63.670 Y78.873 E10.16312
G1 X65.353 Y75.092 E10.30731
G1 X67.786 Y71.744 E10.45148
G1 X69.510 Y70.193 E10.53223
G1 X93.799 Y70.193 E11.37834
G1 X93.799 Y72.296 E11.45160
G1 X84.029 Y82.066 E11.93290
G1 X84.029 Y87.918 E12.13674
G1 X93.799 Y97.688 E12.61804
G1 X93.799 Y99.731 E12.68921
G1 X93.453 Y99.591 F7800.000
G1 X70.932 Y95.861 F7800.000
G1 X74.192 Y99.121 E12.84981 F1260.000
G1 X74.760 Y99.121 E12.86960
G1 X71.500 Y95.861 E13.03020
G1 X72.068 Y95.861 E13.04999
G1 X75.328 Y99.121 E13.21059
G1 X75.896 Y99.121 E13.23038
G1 X72.636 Y95.861 E13.39098
G1 X73.204 Y95.861 E13.41077
G1 X76.464 Y99.121 E13.57137
G1 X77.033 Y99.121 E13.59117
G1 X73.773 Y95.861 E13.75177
G1 X74.341 Y95.861 E13.77156
G1 X77.601 Y99.121 E13.93216
G1 X78.169 Y99.121 E13.95195
G1 X74.909 Y95.861 E14.11255
G1 X75.477 Y95.861 E14.13234
G1 X78.737 Y99.121 E14.29294
G1 X79.305 Y99.121 E14.31273
G1 X75.622 Y95.438 E14.49419
G1 X75.513 Y94.761 E14.51806
G1 X79.873 Y99.121 E14.73285
G1 X80.441 Y99.121 E14.75264
G1 X75.433 Y94.113 E14.99938
G1 X75.373 Y93.485 E15.02133
G1 X81.010 Y99.121 E15.29898
G1 X81.578 Y99.121 E15.31878
G1 X75.314 Y92.858 E15.62733
G1 X75.255 Y92.230 E15.64929
G1 X82.146 Y99.121 E15.98875
G1 X82.714 Y99.121 E16.00855
G1 X75.196 Y91.603 E16.37892
G1 X75.136 Y90.976 E16.40087
G1 X83.282 Y99.121 E16.80216
G1 X83.850 Y99.121 E16.82195
G1 X75.077 Y90.348 E17.25414
G1 X75.019 Y89.722 E17.27605
G1 X84.418 Y99.121 E17.73908
G1 X84.986 Y99.121 E17.75887
G1 X75.001 Y89.135 E18.25081
G1 X74.982 Y88.549 E18.27126
G1 X85.555 Y99.121 E18.79210
G1 X86.123 Y99.121 E18.81189
G1 X74.963 Y87.962 E19.36164
G1 X74.945 Y87.375 E19.38209
G1 X86.691 Y99.121 E19.96074
G1 X87.259 Y99.121 E19.98053
G1 X74.926 Y86.789 E20.58808
G1 X74.908 Y86.202 E20.60852
G1 X87.827 Y99.121 E21.24498
G1 X88.395 Y99.121 E21.26477
G1 X74.889 Y85.615 E21.93012
G1 X74.871 Y85.028 E21.95057
G1 X88.963 Y99.121 E22.64483
G1 X89.532 Y99.121 E22.66462
G1 X74.886 Y84.475 E23.38612
G1 X74.903 Y83.925 E23.40531
G1 X90.100 Y99.121 E24.15394
G1 X90.668 Y99.121 E24.17373
G1 X74.921 Y83.374 E24.94949
G1 X74.938 Y82.823 E24.96869
G1 X91.236 Y99.121 E25.77157
G1 X91.804 Y99.121 E25.79137
G1 X74.955 Y82.273 E26.62138
G1 X74.973 Y81.722 E26.64058
G1 X92.372 Y99.121 E27.49772
G1 X92.940 Y99.121 E27.51751
G1 X74.990 Y81.171 E28.40179
G1 X75.008 Y80.621 E28.42098
G1 X93.129 Y98.742 E29.31369
G1 X93.129 Y98.174 E29.33348
G1 X75.035 Y80.080 E30.22485
G1 X75.084 Y79.561 E30.24301
G1 X83.359 Y87.836 E30.65065
G1 X83.359 Y87.267 E30.67044
G1 X75.133 Y79.042 E31.07567
G1 X75.182 Y78.523 E31.09383
G1 X83.359 Y86.699 E31.49664
G1 X83.359 Y86.131 E31.51643
G1 X75.231 Y78.004 E31.91682
G1 X75.280 Y77.484 E31.93499
G1 X83.359 Y85.563 E32.33297
G1 X83.359 Y84.995 E32.35276
G1 X75.329 Y76.965 E32.74832
G1 X75.379 Y76.446 E32.76648
G1 X83.359 Y84.427 E33.15963
G1 X83.359 Y83.859 E33.17942
G1 X75.428 Y75.927 E33.57015
G1 X75.483 Y75.414 E33.58812
G1 X83.359 Y83.290 E33.97614
G1 X83.359 Y82.722 E33.99593
G1 X75.561 Y74.924 E34.38010
G1 X93.089 Y70.863 F7800.000
G1 X93.129 Y70.903 E34.38207 F1260.000
G1 X93.129 Y71.471 E34.40186
G1 X92.521 Y70.863 E34.43182
G1 X91.953 Y70.863 E34.45161
G1 X93.119 Y72.029 E34.50905
G1 X92.835 Y72.313 E34.52305
G1 X91.385 Y70.863 E34.59448
G1 X90.816 Y70.863 E34.61427
G1 X92.551 Y72.597 E34.69970
G1 X92.267 Y72.881 E34.71369
G1 X90.248 Y70.863 E34.81312
G1 X89.680 Y70.863 E34.83291
G1 X91.982 Y73.166 E34.94632
G1 X91.698 Y73.450 E34.96032
G1 X89.112 Y70.863 E35.08773
G1 X88.544 Y70.863 E35.10752
G1 X91.414 Y73.734 E35.24892
G1 X91.130 Y74.018 E35.26292
G1 X87.976 Y70.863 E35.41831
G1 X87.408 Y70.863 E35.43810
G1 X90.846 Y74.302 E35.60750
G1 X90.562 Y74.586 E35.62149
G1 X86.840 Y70.863 E35.80488
G1 X86.271 Y70.863 E35.82467
G1 X90.278 Y74.870 E36.02205
G1 X89.994 Y75.154 E36.03604
G1 X85.703 Y70.863 E36.24742
G1 X85.135 Y70.863 E36.26721
